X: 31542
T: COTILLION No. 39. CONCERT HALL SETT tune 2
C:
%R: reel
B: Elias Howe "The Musician's Companion" Part 3 1844 p.154 #2
S: http://imslp.org/wiki/The_Musician's_Companion_(Howe,_Elias)
Z: 2015 John Chambers <jc:trillian.mit.edu>
M: 2/4
L: 1/16
K: D
% - - - - - - - - - - - - - - - - - - - - - - - - -
(ag) |\
(fg).f.e (dc).e.d | (B4 A2)Bc | d2cd f2(gf) | (ed).e.f e2(ag) |\
(fg).f.e (dc).e.d | B4 A2Bc | d2cd e2fe | d2f2d2 H|]
A2 |\
DA (3(ABA) FA (3(ABA) | EA (3(ABA) FA (3(ABA) | DA (3(ABA) FA (3(ABA) | GAFA EAFA |\
DA (3(ABA) FA (3(ABA) | EA (3(ABA) FA (3(ABA) | aAgA fAeA | cABc "^D.C."d2 |]
% - - - - - - - - - - Dance description - - - - - - - - - -
%%begintext align
%% First 2 back to back,
%% balance,
%% and turn partners,
%% forward and back next 2,
%% &c.
%%endtext
% - - - - - - - - - - - - - - - - - - - - - - - - -
%%sep 1 1 300
